assets/img/feature_1.svg

<svg width="74" height="76" viewBox="0 0 74 76" fill="none" xmlns="http://www.w3.org/2000/svg">
<path d="M73.2058 60.395C73.2058 66.9947 73.2058 70.2945 71.1556 72.3448C69.1053 74.395 65.8055 74.395 59.2058 74.395L14.6893 74.395C8.08959 74.395 4.78976 74.395 2.73951 72.3448C0.689263 70.2945 0.689263 66.9947 0.689264 60.395L0.689264 58.489C0.689264 51.8893 0.689265 48.5895 2.73952 46.5392C4.78977 44.489 8.0896 44.489 14.6893 44.489L59.2058 44.489C65.8055 44.489 69.1053 44.489 71.1556 46.5392C73.2058 48.5895 73.2058 51.8893 73.2058 58.489L73.2058 60.395Z" fill="#FFFDEF"/>
<path d="M34.9749 44.0523L51.077 61.3142L53.6985 58.7598L71.6759 48.6586L63.4108 74.5365L51.077 61.3142L37.4524 74.59C36.9641 75.3076 30.4152 68.7612 23.3573 61.6662L14.8024 74.6367L5.41828 45.2349C6.36993 44.5404 15.2033 53.4694 23.3573 61.6662L34.9749 44.0523Z" fill="#EF6CF6"/>
<ellipse cx="14.5343" cy="12.4345" rx="14.5343" ry="12.4345" transform="matrix(-0.99997 0.00771219 0.00771219 0.99997 30.1096 11.312)" fill="#FFFDEF"/>
<ellipse cx="14.5343" cy="12.4345" rx="14.5343" ry="12.4345" transform="matrix(-0.99997 0.00771219 0.00771219 0.99997 71.6416 11.312)" fill="#FFFDEF"/>
<ellipse cx="7.97136" cy="6.81971" rx="7.97136" ry="6.81971" transform="matrix(-0.99997 0.00771219 0.00771219 0.99997 25.7263 18.5654)" fill="#07021A"/>
<ellipse cx="7.97136" cy="6.81971" rx="7.97136" ry="6.81971" transform="matrix(-0.99997 0.00771219 0.00771219 0.99997 68.0608 18.5654)" fill="#07021A"/>
<ellipse cx="1.7541" cy="1.50068" rx="1.7541" ry="1.50068" transform="matrix(-0.99997 0.00771219 0.00771219 0.99997 17.4141 21.2915)" fill="#FFFDEF"/>
<ellipse cx="1.7541" cy="1.50068" rx="1.7541" ry="1.50068" transform="matrix(-0.99997 0.00771219 0.00771219 0.99997 60.1189 21.3179)" fill="#FFFDEF"/>
<rect x="36.6475" y="8.09473" width="29.0548" height="11.116" transform="rotate(-15 36.6475 8.09473)" fill="#EF6CF6"/>
<rect x="3.9187" y="0.308594" width="29.0548" height="11.116" transform="rotate(15 3.9187 0.308594)" fill="#EF6CF6"/>
</svg>

<svg xmlns="http://www.w3.org/2000/svg" width="74" height="76" fill="none" viewBox="0 0 74 76"><path fill="#FFFDEF" d="M73.206 60.395c0 6.6 0 9.9-2.05 11.95-2.05 2.05-5.35 2.05-11.95 2.05H14.689c-6.6 0-9.9 0-11.95-2.05-2.05-2.05-2.05-5.35-2.05-11.95v-1.906c0-6.6 0-9.9 2.05-11.95 2.05-2.05 5.35-2.05 11.95-2.05h44.517c6.6 0 9.9 0 11.95 2.05 2.05 2.05 2.05 5.35 2.05 11.95v1.906Z"/><path fill="#EF6CF6" d="m34.975 44.052 16.102 17.262 2.622-2.554 17.977-10.101-8.265 25.878-12.334-13.223L37.452 74.59c-.488.718-7.037-5.829-14.095-12.924l-8.555 12.97-9.384-29.401c.952-.695 9.785 8.234 17.94 16.431l11.617-17.614Z"/><ellipse cx="14.534" cy="12.434" fill="#FFFDEF" rx="14.534" ry="12.434" transform="scale(-1 1) rotate(.442 -1481.802 -3898.443)"/><ellipse cx="14.534" cy="12.434" fill="#FFFDEF" rx="14.534" ry="12.434" transform="scale(-1 1) rotate(.442 -1502.568 -9283.604)"/><ellipse cx="7.971" cy="6.82" fill="#07021A" rx="7.971" ry="6.82" transform="scale(-1 1) rotate(.442 -2420.107 -3326.465)"/><ellipse cx="7.971" cy="6.82" fill="#07021A" rx="7.971" ry="6.82" transform="scale(-1 1) rotate(.442 -2441.275 -8815.68)"/><ellipse cx="1.754" cy="1.501" fill="#FFFDEF" rx="1.754" ry="1.501" transform="scale(-1 1) rotate(.442 -2769.425 -2247.317)"/><ellipse cx="1.754" cy="1.501" fill="#FFFDEF" rx="1.754" ry="1.501" transform="scale(-1 1) rotate(.442 -2794.2 -7784.534)"/><path fill="#EF6CF6" d="M36.648 8.095 64.713.575l2.877 10.737-28.065 7.52zM3.919.31l28.065 7.52-2.877 10.736-28.065-7.52z"/></svg>
